resources/haticons/SVG/toggle_off.svg

<!-- Generated by IcoMoon.io -->
<svg version="1.1" xmlns="http://www.w3.org/2000/svg" width="24" height="24" viewBox="0 0 24 24">
<title>toggle_off</title>
<path d="M6.984 15q1.219 0 2.109-0.891t0.891-2.109-0.891-2.109-2.109-0.891-2.109 0.891-0.891 2.109 0.891 2.109 2.109 0.891zM17.016 6.984q2.063 0 3.516 1.477t1.453 3.539-1.453 3.539-3.516 1.477h-10.031q-2.063 0-3.516-1.477t-1.453-3.539 1.453-3.539 3.516-1.477h10.031z"></path>
</svg>

<svg xmlns="http://www.w3.org/2000/svg" width="24" height="24"><path d="M6.984 15q1.219 0 2.109-.891T9.984 12t-.891-2.109T6.984 9t-2.109.891T3.984 12t.891 2.109T6.984 15zm10.032-8.016q2.063 0 3.516 1.477T21.985 12t-1.453 3.539-3.516 1.477H6.985q-2.063 0-3.516-1.477T2.016 12t1.453-3.539 3.516-1.477h10.031z"/></svg>
